picto/escape-ladder-framed.svg

<svg class="color-immutable" width="30" height="30" viewBox="0 0 30 30" fill="none" xmlns="http://www.w3.org/2000/svg"><path d="M30 0H0V30H30V0Z" fill="#237F52"/><path d="M25.5 3C26.325 3 27 3.675 27 4.5V25.5C27 26.325 26.325 27 25.5 27H4.5C3.675 27 3 26.325 3 25.5V4.5C3 3.675 3.675 3 4.5 3H25.5ZM25.5 2.625H4.5C3.46613 2.625 2.625 3.46613 2.625 4.5V25.5C2.625 26.5339 3.46613 27.375 4.5 27.375H25.5C26.5339 27.375 27.375 26.5339 27.375 25.5V4.5C27.375 3.46613 26.5339 2.625 25.5 2.625Z" fill="white"/><path d="M18.375 6C18.1688 6 18 6.16875 18 6.375V7.3125H12V6.375C12 6.16875 11.8313 6 11.625 6C11.4188 6 11.25 6.16875 11.25 6.375V23.625C11.25 23.8313 11.4188 24 11.625 24C11.8313 24 12 23.8313 12 23.625V22.6875H18V23.625C18 23.8313 18.1688 24 18.375 24C18.5813 24 18.75 23.8313 18.75 23.625V6.375C18.75 6.16875 18.5813 6 18.375 6ZM18 22.3125H12V19.6875H18V22.3125ZM18 19.3125H12V16.6875H18V19.3125ZM18 16.3125H12V13.6875H18V16.3125ZM18 13.3125H12V10.6875H18V13.3125ZM18 10.3125H12V7.6875H18V10.3125Z" fill="white"/></svg>

<svg class="color-immutable" width="30" height="30" viewBox="0 0 30 30" fill="none" xmlns="http://www.w3.org/2000/svg"><g clip-path="url(#a)"><path d="M30 0H0v30h30V0Z" fill="#237F52"/><path d="M25.5 3c.825 0 1.5.675 1.5 1.5v21c0 .825-.675 1.5-1.5 1.5h-21c-.825 0-1.5-.675-1.5-1.5v-21C3 3.675 3.675 3 4.5 3h21Zm0-.375h-21A1.877 1.877 0 0 0 2.625 4.5v21c0 1.034.841 1.875 1.875 1.875h21a1.877 1.877 0 0 0 1.875-1.875v-21A1.877 1.877 0 0 0 25.5 2.625Z" fill="#fff"/><path d="M18.375 6a.376.376 0 0 0-.375.375v.938h-6v-.938A.376.376 0 0 0 11.625 6a.376.376 0 0 0-.375.375v17.25c0 .206.169.375.375.375a.376.376 0 0 0 .375-.375v-.938h6v.938c0 .206.169.375.375.375a.376.376 0 0 0 .375-.375V6.375A.376.376 0 0 0 18.375 6ZM18 22.313h-6v-2.625h6v2.625Zm0-3h-6v-2.625h6v2.625Zm0-3h-6v-2.625h6v2.624Zm0-3h-6v-2.626h6v2.626Zm0-3h-6V7.687h6v2.625Z" fill="#fff"/></g><defs><clipPath id="a"><path fill="#fff" d="M0 0h30v30H0z"/></clipPath></defs></svg>
